assets/images/marketing.svg

<svg width="153" height="126" viewBox="0 0 153 126" fill="none" xmlns="http://www.w3.org/2000/svg">
<rect x="89.3823" y="65.0316" width="19.1258" height="2.22157" rx="1.11079" transform="rotate(-23.2546 89.3823 65.0316)" fill="white"/>
<rect x="85.6997" y="56.2631" width="19.1258" height="2.22157" rx="1.11079" transform="rotate(-39.7785 85.6997 56.2631)" fill="white"/>
<rect x="112.82" y="71.3306" width="19.1258" height="2.22157" rx="1.11079" transform="scale(-1 1) rotate(6.73068 112.82 71.3306)" fill="white"/>
<path fill-rule="evenodd" clip-rule="evenodd" d="M60.9537 47.8414C62.0079 47.5491 63.1177 47.5185 64.1871 47.7521C65.2559 47.98 66.2535 48.465 67.0928 49.165C67.9327 49.8651 68.5889 50.7591 69.0049 51.7698L85.6172 92.2169C86.0337 93.2282 86.1973 94.3258 86.0938 95.4146C85.9903 96.5034 85.6231 97.5506 85.0235 98.4653C84.4244 99.3802 83.6109 100.135 82.6539 100.665C81.6968 101.194 80.6255 101.483 79.5318 101.505L45.0069 102.213L38.4649 104.9L38.4688 104.909L34.3199 106.613L34.316 106.604L33.7764 106.825C32.0347 107.537 30.1182 107.704 28.2794 107.305C26.441 106.906 24.7662 105.96 23.4756 104.591L22.2032 105.113C20.3692 105.866 18.3111 105.86 16.4815 105.096C14.6519 104.332 13.2012 102.872 12.4478 101.038L10.7437 96.8889C9.99029 95.0549 9.99664 92.9968 10.7608 91.1673C11.525 89.3378 12.9849 87.8868 14.8189 87.1336L16.0914 86.6109C16.0469 84.73 16.5728 82.8797 17.6002 81.3036C18.628 79.7275 20.1085 78.4995 21.8477 77.7813L33.1265 73.149L58.1358 49.4293C58.9317 48.6787 59.899 48.1337 60.9537 47.8414ZM20.4991 100.964L21.1905 100.68L17.2144 90.9987L16.523 91.2827C15.7891 91.584 15.2056 92.1644 14.9 92.8961C14.5938 93.6279 14.5914 94.4512 14.8931 95.1848L16.5972 99.3339C16.8985 100.068 17.4786 100.651 18.2105 100.957C18.9424 101.263 19.7657 101.265 20.4991 100.964ZM32.0723 102.676L41.7535 98.6998L33.2418 77.9749L23.5601 81.9512C22.3785 82.4387 21.4385 83.3746 20.9459 84.5542C20.4532 85.7336 20.4478 87.0603 20.9317 88.2434L25.7798 100.048C26.2676 101.229 27.2037 102.17 28.3829 102.662C29.5626 103.155 30.8892 103.16 32.0723 102.676ZM81.6085 94.4198C81.5816 94.2493 81.5347 94.0819 81.4683 93.921L64.8492 53.4768C64.711 53.1398 64.4927 52.8415 64.2129 52.6078C64.044 52.4666 63.856 52.3515 63.6548 52.2656C63.5235 52.2094 63.3863 52.1657 63.2457 52.1354C62.8892 52.0589 62.5201 52.0701 62.1695 52.1684C61.8184 52.2667 61.4971 52.4489 61.2325 52.6993L37.1109 75.5695L46.1993 97.6983L79.4419 97.0161C79.6729 97.0111 79.9014 96.9705 80.1187 96.8963C80.2437 96.8536 80.3653 96.7998 80.4815 96.7352C80.6646 96.6339 80.8316 96.5078 80.9786 96.3613C81.0875 96.2524 81.1856 96.1322 81.2706 96.0022C81.4698 95.6975 81.5923 95.3487 81.6265 94.986C81.6446 94.7966 81.6382 94.6063 81.6085 94.4198Z" fill="#F8CD2B"/>
<path d="M63.3646 61.4269C62.672 60.2227 61.7563 60.5902 61.8758 61.9742C62.1874 65.5857 63.4343 71.4118 59.9264 78.3144C56.4115 85.2308 50.2845 89.1749 48.5702 91.6664C47.9423 92.5791 48.933 93.3247 50.0409 93.3201C54.6576 93.3009 66.3724 93.3166 72.8153 93.3274C74.9348 93.3309 76.3807 91.1987 75.5881 89.233C72.6156 81.8605 66.3701 66.6529 63.3646 61.4269Z" fill="#3B3947"/>
<path d="M41.7976 25.8696C40.6935 25.8696 39.6002 26.0871 38.5802 26.5097C37.5602 26.9323 36.6335 27.5518 35.8529 28.3326C35.0724 29.1134 34.4533 30.0404 34.0311 31.0605C33.6088 32.0807 33.3917 33.174 33.3921 34.2781C33.3921 34.5757 33.5103 34.8611 33.7208 35.0715C33.9312 35.282 34.2166 35.4002 34.5142 35.4002H51.005C51.3026 35.4002 51.588 35.282 51.7984 35.0715C52.0089 34.8611 52.1271 34.5757 52.1271 34.2781C52.1275 33.1738 51.9103 32.0802 51.4878 31.0598C51.0654 30.0395 50.4461 29.1124 49.6652 28.3315C48.8843 27.5507 47.9572 26.9313 46.9369 26.5089C45.9165 26.0865 44.823 25.8692 43.7186 25.8696H41.7976Z" fill="#F8CD2B"/>
<path d="M25.4871 34.6072H31.5795C31.5604 34.4976 31.5514 34.3864 31.5526 34.2751C31.5525 32.6206 31.9811 30.9943 32.7965 29.5548C33.612 28.1153 34.7866 26.9116 36.2057 26.0611C35.5027 25.8579 34.774 25.7571 34.0422 25.7619H32.2468C30.1786 25.7643 28.1958 26.5869 26.7333 28.0494C25.2708 29.5118 24.4482 31.4947 24.4458 33.5629C24.4454 33.6999 24.4721 33.8356 24.5242 33.9623C24.5764 34.089 24.653 34.2041 24.7497 34.3012C24.8465 34.3982 24.9614 34.4751 25.0879 34.5277C25.2145 34.5802 25.3501 34.6072 25.4871 34.6072Z" fill="white"/>
<circle cx="36.4415" cy="17.6411" r="4.90052" fill="white"/>
<circle cx="42.7589" cy="18.6402" r="5.50052" fill="#F8CD2B" stroke="#03022D" stroke-width="1.2"/>
<path d="M88.8819 29.1089C96.7646 29.1089 103.155 22.7187 103.155 14.836C103.155 6.95322 96.7646 0.562988 88.8819 0.562988C80.9991 0.562988 74.6089 6.95322 74.6089 14.836C74.6089 22.7187 80.9991 29.1089 88.8819 29.1089Z" fill="white"/>
<path fill-rule="evenodd" clip-rule="evenodd" d="M86.517 14.9071V23.6488C86.517 23.7748 86.6188 23.8769 86.7448 23.8769H89.9914C90.1174 23.8769 90.2192 23.7748 90.2192 23.6488V14.7644H92.5726C92.6907 14.7644 92.7893 14.6737 92.7996 14.5559L93.0259 11.8794C93.037 11.7463 92.9324 11.6324 92.7989 11.6324H90.2192V9.73312C90.2192 9.28828 90.58 8.92707 91.0252 8.92707H92.8391C92.9651 8.92707 93.0669 8.82529 93.0669 8.69931V6.02279C93.0669 5.89681 92.9651 5.79468 92.8391 5.79468H89.7743C87.9758 5.79468 86.5178 7.25304 86.5178 9.05127V11.6321H84.8946C84.7686 11.6321 84.6665 11.7342 84.6665 11.8598V14.5367C84.6665 14.6627 84.7686 14.7644 84.8946 14.7644H86.5178V14.9071H86.517Z" fill="#03022D"/>
<path d="M134.546 50.8037C142.429 50.8037 148.819 44.4135 148.819 36.5307C148.819 28.648 142.429 22.2578 134.546 22.2578C126.663 22.2578 120.273 28.648 120.273 36.5307C120.273 44.4135 126.663 50.8037 134.546 50.8037Z" fill="#F8CD2B"/>
<path d="M143.577 34.2432C143.577 32.1037 141.843 30.3695 139.704 30.3695H129.657C127.518 30.3695 125.784 32.1037 125.784 34.2432V38.9514C125.784 41.0909 127.518 42.825 129.657 42.825H139.704C141.843 42.825 143.577 41.0909 143.577 38.9514V34.2432ZM137.239 36.8346L133.232 39.0322C133.058 39.1261 132.901 39.0001 132.901 38.8019V34.2916C132.901 34.0912 133.063 33.9652 133.237 34.0645L137.271 36.3773C137.449 36.4791 137.419 36.7371 137.239 36.8346Z" fill="#03022D"/>
<path d="M138.583 97.6193C146.465 97.6193 152.856 91.229 152.856 83.3463C152.856 75.4635 146.465 69.0733 138.583 69.0733C130.7 69.0733 124.31 75.4635 124.31 83.3463C124.31 91.229 130.7 97.6193 138.583 97.6193Z" fill="white"/>
<path d="M147.252 77.8417C146.693 78.0943 146.078 78.2477 145.476 78.3491C145.762 78.3007 146.183 77.7829 146.352 77.5733C146.609 77.2538 146.823 76.8897 146.944 76.4965C146.959 76.4659 146.971 76.4274 146.94 76.4039C146.902 76.3886 146.876 76.3965 146.846 76.4118C146.173 76.7723 145.477 77.0338 144.736 77.2189C144.675 77.2342 144.629 77.2189 144.591 77.1804C144.529 77.1114 144.472 77.0459 144.406 76.9922C144.095 76.7274 143.761 76.5196 143.385 76.3659C142.89 76.1644 142.35 76.079 141.817 76.1135C141.299 76.1474 140.79 76.2933 140.33 76.5335C139.87 76.7744 139.458 77.1093 139.131 77.5135C138.792 77.9313 138.543 78.4253 138.414 78.9481C138.291 79.4531 138.301 79.9523 138.377 80.463C138.388 80.5474 138.381 80.5591 138.304 80.5474C135.406 80.1164 133.005 79.0794 131.055 76.858C130.971 76.7616 130.925 76.7616 130.855 76.8655C130.002 78.1445 130.416 80.1986 131.482 81.2086C131.624 81.3431 131.77 81.4776 131.927 81.6007C131.87 81.6121 131.161 81.5353 130.529 81.2086C130.444 81.1552 130.402 81.1858 130.394 81.2815C130.386 81.42 130.398 81.547 130.417 81.6968C130.58 82.9933 131.478 84.1922 132.708 84.6598C132.854 84.7214 133.015 84.7751 133.172 84.8018C132.892 84.8634 132.604 84.9072 131.801 84.8442C131.701 84.8249 131.662 84.8751 131.701 84.9709C132.304 86.6161 133.607 87.1057 134.583 87.3844C134.714 87.4072 134.845 87.4072 134.976 87.4378C134.968 87.4495 134.96 87.4495 134.953 87.4609C134.629 87.9545 133.507 88.3214 132.985 88.5043C132.034 88.8367 130.999 88.9862 129.995 88.8869C129.834 88.8634 129.801 88.8648 129.757 88.8869C129.713 88.9139 129.751 88.9527 129.803 88.9943C130.007 89.1289 130.214 89.2481 130.426 89.3634C131.064 89.7015 131.729 89.9705 132.424 90.1627C136.015 91.1545 140.061 90.4257 142.758 87.7463C144.875 85.6424 145.617 82.741 145.617 79.8356C145.617 79.7221 145.752 79.6591 145.832 79.599C146.383 79.1851 146.82 78.6897 147.232 78.1367C147.324 78.0121 147.318 77.9018 147.318 77.8566C147.318 77.8488 147.318 77.8413 147.318 77.8413C147.318 77.795 147.323 77.8089 147.252 77.8417Z" fill="#03022D"/>
<path fill-rule="evenodd" clip-rule="evenodd" d="M134.958 90.5247C134.934 90.5261 134.67 90.5247 134.958 90.5247C134.958 90.5247 134.911 90.5247 134.958 90.5247Z" fill="#03022D"/>
<path fill-rule="evenodd" clip-rule="evenodd" d="M135.55 90.5399C135.55 90.5106 135.859 90.5399 135.55 90.5399C135.55 90.5247 135.588 90.5399 135.55 90.5399Z" fill="#03022D"/>
<path fill-rule="evenodd" clip-rule="evenodd" d="M141.767 76.1271C141.748 76.1421 141.722 76.1421 141.695 76.1271C141.722 76.1271 141.748 76.1271 141.767 76.1271Z" fill="#03022D"/>
</svg>

<?xml version="1.0" encoding="utf-8"?>
<!-- Generator: Adobe Illustrator 16.0.0, SVG Export Plug-In . SVG Version: 6.00 Build 0)  -->
<!DOCTYPE svg PUBLIC "-//W3C//DTD SVG 1.1//EN" "http://www.w3.org/Graphics/SVG/1.1/DTD/svg11.dtd">
<svg version="1.1" id="Layer_1" xmlns="http://www.w3.org/2000/svg" xmlns:xlink="http://www.w3.org/1999/xlink" x="0px" y="0px"
	 width="153px" height="126px" viewBox="0 0 153 126" enable-background="new 0 0 153 126" xml:space="preserve">
<g>
	<path fill="#FFFFFF" d="M90.402,64.593l15.531-6.674c0.564-0.242,1.217,0.019,1.459,0.582l0,0c0.242,0.563-0.018,1.217-0.582,1.459
		l-15.531,6.675c-0.563,0.242-1.217-0.02-1.459-0.582l0,0C89.578,65.488,89.84,64.835,90.402,64.593z"/>
	<path fill="#FFFFFF" d="M86.553,55.552l12.992-10.815c0.471-0.393,1.172-0.329,1.564,0.143l0,0
		c0.393,0.471,0.328,1.172-0.143,1.564L87.975,57.26c-0.471,0.393-1.172,0.329-1.564-0.143l0,0
		C86.018,56.646,86.082,55.945,86.553,55.552z"/>
	<path fill="#FFFFFF" d="M110.63,71.461l-16.788,1.98c-0.609,0.072-1.045,0.625-0.973,1.234l0,0
		c0.072,0.609,0.625,1.045,1.233,0.973l16.788-1.981c0.609-0.071,1.045-0.624,0.973-1.233l0,0
		C111.791,71.824,111.239,71.389,110.63,71.461z"/>
	<path fill="#F8CD2B" d="M60.954,47.841c1.054-0.292,2.164-0.323,3.233-0.089c1.069,0.228,2.066,0.713,2.906,1.413
		c0.84,0.7,1.496,1.594,1.912,2.604l16.612,40.447c0.416,1.012,0.58,2.109,0.477,3.197c-0.104,1.09-0.471,2.137-1.07,3.051
		c-0.6,0.916-1.412,1.67-2.369,2.2c-0.957,0.528-2.029,0.817-3.123,0.84l-34.524,0.708l-6.542,2.688l0.004,0.009l-4.149,1.704
		l-0.004-0.01l-0.54,0.222c-1.742,0.712-3.658,0.879-5.497,0.479c-1.838-0.398-3.513-1.345-4.804-2.714l-1.272,0.522
		c-1.834,0.753-3.892,0.746-5.722-0.018s-3.28-2.224-4.034-4.058l-1.704-4.149c-0.753-1.834-0.747-3.892,0.017-5.721
		c0.764-1.83,2.224-3.281,4.058-4.034l1.272-0.522c-0.044-1.881,0.481-3.731,1.509-5.308c1.028-1.576,2.508-2.804,4.248-3.522
		l11.279-4.633l25.009-23.719C58.932,48.679,59.899,48.134,60.954,47.841z M20.499,100.964l0.691-0.284l-3.976-9.682l-0.691,0.285
		c-0.734,0.301-1.317,0.881-1.623,1.613c-0.306,0.731-0.309,1.555-0.007,2.288l1.704,4.149c0.301,0.734,0.881,1.316,1.613,1.623
		S19.766,101.266,20.499,100.964z M32.072,102.676l9.681-3.977l-8.512-20.725l-9.682,3.977c-1.182,0.487-2.122,1.424-2.614,2.604
		c-0.493,1.179-0.498,2.506-0.014,3.688l4.848,11.805c0.488,1.181,1.424,2.122,2.603,2.614
		C29.563,103.154,30.889,103.16,32.072,102.676z M81.608,94.42c-0.026-0.171-0.073-0.338-0.14-0.499l-16.62-40.444
		c-0.138-0.337-0.356-0.635-0.636-0.869c-0.169-0.141-0.357-0.256-0.558-0.342c-0.131-0.056-0.269-0.1-0.409-0.13
		c-0.356-0.076-0.726-0.065-1.076,0.033c-0.351,0.098-0.672,0.28-0.937,0.531l-24.122,22.87l9.088,22.129l33.242-0.683
		c0.231-0.004,0.46-0.045,0.678-0.119c0.125-0.043,0.246-0.097,0.362-0.161c0.183-0.102,0.351-0.228,0.497-0.374
		c0.109-0.109,0.207-0.229,0.292-0.359c0.199-0.305,0.321-0.653,0.356-1.016C81.645,94.797,81.639,94.606,81.608,94.42z"/>
</g>
<path fill="#3B3947" d="M63.365,61.427c-0.693-1.204-1.608-0.836-1.489,0.547c0.312,3.612,1.558,9.438-1.95,16.34
	c-3.515,6.916-9.642,10.86-11.356,13.352c-0.628,0.913,0.363,1.658,1.471,1.654c4.617-0.02,16.332-0.004,22.774,0.007
	c2.119,0.004,3.565-2.128,2.772-4.095C72.616,81.86,66.37,66.652,63.365,61.427z"/>
<g>
	<path fill="#F8CD2B" d="M41.797,25.87c-1.104,0-2.197,0.217-3.217,0.64c-1.02,0.422-1.947,1.042-2.727,1.823
		c-0.781,0.781-1.4,1.708-1.822,2.728c-0.422,1.02-0.64,2.113-0.639,3.218c0,0.297,0.118,0.583,0.329,0.793
		c0.21,0.211,0.496,0.329,0.793,0.329h16.491c0.298,0,0.583-0.118,0.793-0.329c0.21-0.21,0.329-0.496,0.329-0.793
		c0-1.104-0.217-2.198-0.639-3.219c-0.422-1.02-1.042-1.947-1.823-2.728c-0.781-0.781-1.708-1.4-2.728-1.823
		c-1.021-0.422-2.114-0.64-3.218-0.639H41.797z"/>
	<path fill="#FFFFFF" d="M25.487,34.607h6.092c-0.019-0.11-0.028-0.221-0.027-0.333c0-1.654,0.428-3.281,1.244-4.72
		s1.99-2.643,3.409-3.494c-0.703-0.203-1.432-0.304-2.164-0.299h-1.795c-2.068,0.002-4.051,0.825-5.513,2.288
		s-2.285,3.445-2.288,5.514c0,0.137,0.026,0.272,0.079,0.399c0.052,0.126,0.128,0.242,0.225,0.339
		c0.097,0.097,0.212,0.174,0.338,0.227C25.214,34.58,25.35,34.607,25.487,34.607z"/>
	<g>
		<path fill="#FFFFFF" d="M39.265,13.646c-0.799-0.566-1.77-0.906-2.824-0.906c-2.707,0-4.9,2.194-4.9,4.9s2.194,4.9,4.9,4.9
			c0.507,0,0.987-0.099,1.448-0.242c-0.769-1.021-1.231-2.286-1.231-3.659C36.658,16.576,37.691,14.751,39.265,13.646z"/>
		<path fill="#F8CD2B" d="M42.759,13.74c-0.953,0-1.835,0.285-2.588,0.756c-1.383,0.867-2.313,2.395-2.313,4.144
			c0,1.203,0.452,2.292,1.174,3.145c0.899,1.064,2.227,1.755,3.726,1.755c2.702,0,4.9-2.198,4.9-4.9S45.461,13.74,42.759,13.74z"/>
	</g>
</g>
<g>
	<path fill="#FFFFFF" d="M88.882,29.109c7.883,0,14.272-6.39,14.272-14.273S96.765,0.563,88.882,0.563s-14.273,6.39-14.273,14.273
		S80.999,29.109,88.882,29.109z"/>
	<path fill="#03022D" d="M86.518,14.907v8.742c0,0.126,0.102,0.228,0.227,0.228h3.247c0.126,0,0.228-0.102,0.228-0.228v-8.884h2.354
		c0.119,0,0.217-0.091,0.228-0.209l0.226-2.676c0.012-0.133-0.093-0.247-0.227-0.247h-2.58V9.733c0-0.445,0.361-0.806,0.807-0.806
		h1.813c0.126,0,0.228-0.102,0.228-0.228V6.023c0-0.126-0.102-0.228-0.228-0.228h-3.064c-1.799,0-3.257,1.458-3.257,3.256v2.581
		h-1.623c-0.126,0-0.229,0.103-0.229,0.228v2.677c0,0.126,0.103,0.228,0.229,0.228h1.623V14.907L86.518,14.907z"/>
</g>
<g>
	<path fill="#F8CD2B" d="M134.546,50.804c7.884,0,14.272-6.39,14.272-14.273s-6.389-14.273-14.272-14.273
		c-7.883,0-14.272,6.39-14.272,14.273S126.663,50.804,134.546,50.804z"/>
	<path fill="#03022D" d="M143.577,34.243c0-2.14-1.734-3.874-3.873-3.874h-10.047c-2.14,0-3.873,1.734-3.873,3.874v4.708
		c0,2.14,1.733,3.874,3.873,3.874h10.047c2.139,0,3.873-1.734,3.873-3.874V34.243z M137.238,36.834l-4.006,2.198
		c-0.174,0.094-0.332-0.032-0.332-0.23v-4.51c0-0.2,0.162-0.326,0.336-0.227l4.035,2.313
		C137.449,36.479,137.419,36.737,137.238,36.834z"/>
</g>
<g>
	<path fill="#FFFFFF" d="M138.583,97.619c7.882,0,14.272-6.391,14.272-14.273s-6.391-14.272-14.272-14.272
		c-7.883,0-14.272,6.39-14.272,14.272S130.7,97.619,138.583,97.619z"/>
	<path fill="#03022D" d="M147.252,77.842c-0.559,0.252-1.174,0.406-1.775,0.508c0.285-0.049,0.707-0.566,0.875-0.776
		c0.258-0.319,0.472-0.684,0.592-1.077c0.016-0.03,0.027-0.068-0.004-0.092c-0.037-0.016-0.063-0.008-0.094,0.008
		c-0.673,0.36-1.369,0.621-2.109,0.807c-0.062,0.016-0.107,0-0.146-0.038c-0.062-0.069-0.118-0.135-0.185-0.188
		c-0.311-0.265-0.645-0.473-1.021-0.627c-0.494-0.201-1.035-0.286-1.568-0.252c-0.518,0.034-1.026,0.18-1.486,0.42
		c-0.46,0.241-0.872,0.576-1.199,0.98c-0.339,0.418-0.588,0.912-0.717,1.435c-0.123,0.505-0.113,1.004-0.037,1.515
		c0.012,0.084,0.004,0.096-0.072,0.084c-2.898-0.431-5.3-1.467-7.25-3.689c-0.084-0.096-0.13-0.096-0.199,0.008
		c-0.854,1.279-0.439,3.334,0.627,4.344c0.142,0.135,0.287,0.269,0.444,0.392c-0.057,0.012-0.766-0.065-1.397-0.392
		c-0.086-0.054-0.127-0.023-0.135,0.072c-0.008,0.139,0.004,0.266,0.022,0.416c0.163,1.296,1.062,2.495,2.291,2.963
		c0.146,0.061,0.308,0.115,0.464,0.142c-0.279,0.062-0.568,0.105-1.371,0.042c-0.1-0.02-0.139,0.031-0.1,0.127
		c0.604,1.646,1.906,2.135,2.882,2.414c0.131,0.022,0.263,0.022,0.394,0.053c-0.009,0.012-0.017,0.012-0.023,0.023
		c-0.324,0.494-1.446,0.86-1.969,1.043c-0.95,0.333-1.985,0.482-2.989,0.383c-0.161-0.023-0.194-0.021-0.238,0
		c-0.044,0.027-0.006,0.066,0.046,0.107c0.204,0.135,0.411,0.254,0.623,0.369c0.639,0.338,1.303,0.607,1.998,0.799
		c3.592,0.992,7.637,0.264,10.334-2.416c2.117-2.104,2.859-5.005,2.859-7.91c0-0.113,0.135-0.177,0.215-0.236
		c0.551-0.414,0.988-0.91,1.4-1.463c0.092-0.125,0.086-0.234,0.086-0.28c0-0.008,0-0.015,0-0.015
		C147.318,77.795,147.323,77.809,147.252,77.842z"/>
	<path fill="#03022D" d="M134.958,90.525C134.934,90.526,134.67,90.525,134.958,90.525
		C134.958,90.525,134.911,90.525,134.958,90.525z"/>
	<path fill="#03022D" d="M135.55,90.54C135.55,90.511,135.859,90.54,135.55,90.54C135.55,90.525,135.588,90.54,135.55,90.54z"/>
	<path fill="#03022D" d="M141.768,76.127c-0.02,0.016-0.045,0.016-0.072,0C141.723,76.127,141.748,76.127,141.768,76.127z"/>
</g>
</svg>
